Flat-Remix-Dark/apps/scalable/cs-overview.svg

<svg xmlns="http://www.w3.org/2000/svg" xmlns:xlink="http://www.w3.org/1999/xlink" width="384pt" height="384pt" version="1.1" viewBox="0 0 384 384"> <defs> <filter id="alpha" width="100%" height="100%" x="0%" y="0%" filterUnits="objectBoundingBox"> <feColorMatrix in="SourceGraphic" type="matrix" values="0 0 0 0 1 0 0 0 0 1 0 0 0 0 1 0 0 0 1 0"/> </filter> <mask id="mask0"> <g filter="url(#alpha)"> <rect width="384" height="384" x="0" y="0" style="fill:rgb(0%,0%,0%);fill-opacity:0.4"/> </g> </mask> <clipPath id="clip1"> <rect width="384" height="384" x="0" y="0"/> </clipPath> <g id="surface5" clip-path="url(#clip1)"> <path style="fill-rule:evenodd;fill:rgb(100.000%,100.000%,100.000%)" d="M 352 240.015625 C 330.910156 239.625 310.558594 247.878906 295.511719 262.921875 C 280.472656 277.96875 272 298.527344 272 320 L 336 320 C 337.136719 320 338.472656 319.734375 339.769531 319.511719 C 346.792969 317.824219 352 311.558594 352 304 Z M 352 240.015625"/> </g> <mask id="mask1"> <g filter="url(#alpha)"> <rect width="384" height="384" x="0" y="0" style="fill:rgb(0%,0%,0%);fill-opacity:0.2"/> </g> </mask> <clipPath id="clip2"> <rect width="384" height="384" x="0" y="0"/> </clipPath> <g id="surface8" clip-path="url(#clip2)"> <path style="fill:rgb(0%,0%,0%)" d="M 32 304 L 32 312 C 32 320.863281 39.136719 328 48 328 L 336 328 C 344.863281 328 352 320.863281 352 312 L 352 304 C 352 312.863281 344.863281 320 336 320 L 48 320 C 39.136719 320 32 312.863281 32 304 Z M 32 304"/> </g> <mask id="mask2"> <g filter="url(#alpha)"> <rect width="384" height="384" x="0" y="0" style="fill:rgb(0%,0%,0%);fill-opacity:0.101961"/> </g> </mask> <clipPath id="clip3"> <rect width="384" height="384" x="0" y="0"/> </clipPath> <g id="surface11" clip-path="url(#clip3)"> <path style="fill:rgb(100.000%,100.000%,100.000%)" d="M 48 64 C 39.136719 64 32 71.136719 32 80 L 32 88 C 32 79.136719 39.136719 72 48 72 L 336 72 C 344.863281 72 352 79.136719 352 88 L 352 80 C 352 71.136719 344.863281 64 336 64 Z M 48 64"/> </g> <mask id="mask3"> <g filter="url(#alpha)"> <rect width="384" height="384" x="0" y="0" style="fill:rgb(0%,0%,0%);fill-opacity:0.4"/> </g> </mask> <clipPath id="clip4"> <rect width="384" height="384" x="0" y="0"/> </clipPath> <g id="surface14" clip-path="url(#clip4)"> <path style="fill-rule:evenodd;fill:rgb(100.000%,100.000%,100.000%)" d="M 32 143.984375 C 53.085938 144.375 73.4375 136.121094 88.484375 121.078125 C 103.53125 106.039062 112.003906 85.46875 112.003906 64 L 48.003906 64 C 46.871094 64 45.535156 64.261719 44.238281 64.484375 C 37.210938 66.175781 32.003906 72.441406 32.003906 79.996094 L 32.003906 143.980469 Z M 32 143.984375"/> </g> </defs> <g> <path style="fill:rgb(29.019%,68.235%,90.196%)" d="M 48 64 C 48 64 32 64 32 80 L 32 304 C 32 312.863281 39.136719 320 48 320 L 336 320 C 344.863281 320 352 312.863281 352 304 L 352 80 C 352 71.136719 344.863281 64 336 64 Z M 48 64"/> <use mask="url(#mask0)" xlink:href="#surface5"/> <use mask="url(#mask1)" xlink:href="#surface8"/> <use mask="url(#mask2)" xlink:href="#surface11"/> <use mask="url(#mask3)" xlink:href="#surface14"/> </g> </svg>

<svg width="512" height="512" version="1.1" viewBox="0 0 384 384" xmlns="http://www.w3.org/2000/svg" xmlns:xlink="http://www.w3.org/1999/xlink"><defs><filter id="alpha" x="0%" y="0%" width="100%" height="100%"><feColorMatrix in="SourceGraphic" values="0 0 0 0 1 0 0 0 0 1 0 0 0 0 1 0 0 0 1 0"/></filter><mask id="d"><g filter="url(#alpha)"><rect width="384" height="384" fill-opacity=".4"/></g></mask><clipPath id="f"><rect width="384" height="384"/></clipPath><mask id="c"><g filter="url(#alpha)"><rect width="384" height="384" fill-opacity=".4"/></g></mask><clipPath id="e"><rect width="384" height="384"/></clipPath></defs><path d="m48 64s-16 0-16 16v224c0 8.8633 7.1367 16 16 16h288c8.8633 0 16-7.1367 16-16v-224c0-8.8633-7.1367-16-16-16z" fill="#49ade5"/><use mask="url(#d)" xlink:href="#a"/><use mask="url(#c)" xlink:href="#b"/><g id="a" clip-path="url(#f)"><path d="m352 240.02c-21.09-0.39062-41.441 7.8633-56.488 22.906-15.039 15.047-23.512 35.605-23.512 57.078h64c1.1367 0 2.4727-0.26562 3.7695-0.48828 7.0234-1.6875 12.23-7.9531 12.23-15.512z" fill="#fff" fill-rule="evenodd" opacity=".3"/></g><g id="b" clip-path="url(#e)"><path d="m32 143.98c21.086 0.39062 41.438-7.8633 56.484-22.906 15.047-15.039 23.52-35.609 23.52-57.078h-64c-1.1328 0-2.4688 0.26172-3.7656 0.48438-7.0273 1.6914-12.234 7.957-12.234 15.512v63.984z" fill="#fff" fill-rule="evenodd" opacity=".3"/></g><path transform="scale(.75)" d="m42.666 395.33v10c0 11.818 9.5163 21.332 21.334 21.332h384c11.818 0 21.334-9.5143 21.334-21.332v-10c0 11.818-9.5163 21.332-21.334 21.332h-384c-11.818 0-21.334-9.5143-21.334-21.332z" opacity=".3" stroke-width="1.3333"/><path transform="scale(.75)" d="m64 85.334s-21.334-0.001302-21.334 21.332v10c0-21.333 21.334-21.332 21.334-21.332h384c11.818 0 21.334 9.5143 21.334 21.332v-10c0-11.818-9.5163-21.332-21.334-21.332h-384z" fill="#fff" opacity=".3" stroke-width="1.3333"/></svg>
